X: 929
T: John Carey's daughter
C: anon.
O: Ireland
B: Francis O'Neill: "The Dance Music of Ireland" (1907) no. 929
R: Hornpipe
Z: Transcribed by Frank Nordberg - http://www.musicaviva.com
F: http://www.musicaviva.com/abc/tunes/ireland/oneill-1001/oneill-1001-092
9.abc
M: C|
L: 1/8
K: D
A>G|F>d (3dcd f>d (3dcd|fdcd B2A>G|F>d (3dcd f>d (3dcd|BGFG E2A>G|F>d (3d
cd f>d (3dcd|fdcd B2A>G|FdcB AFGE|F2D2D2:|
|:d2|f>d (3dcd Bcde|fdcd B2F2|BABc dcde|fdcd B2Bc|d>fed cecA|B>"^1)"dBG F
AFD|E>DCD EFGA|F2D2D2:|
W:
W:
W: 1) org. 8th note.
W:
W:
W: From Musica Viva - http://www.musicaviva.com
W: the Internet center for free sheet music downloads.


